components/2.0/icon/icons/icon-linepath-straight-22px.svg

<svg width="22" height="22" xmlns="http://www.w3.org/2000/svg"><path d="M17 2c-1.7 0-3 1.3-3 3 0 .5 0 1 .3 1.3l-8 8C6 14 5.5 14 5 14c-1.7 0-3 1.3-3 3s1.3 3 3 3 3-1.3 3-3c0-.5 0-1-.3-1.3l8-8c.4.2.8.3 1.3.3 1.7 0 3-1.3 3-3s-1.3-3-3-3z" fill="#3D4752" fill-rule="evenodd"/></svg>

<?xml version="1.0" encoding="UTF-8" standalone="no"?>
<svg width="22px" height="22px" viewBox="0 0 22 22" version="1.1" xmlns="http://www.w3.org/2000/svg" xmlns:xlink="http://www.w3.org/1999/xlink" xmlns:sketch="http://www.bohemiancoding.com/sketch/ns">
    <!-- Generator: Sketch 3.4.4 (17249) - http://www.bohemiancoding.com/sketch -->
    <title>icon-linepath-straight-22px</title>
    <desc>Created with Sketch.</desc>
    <defs></defs>
    <g id="22px" stroke="none" stroke-width="1" fill="none" fill-rule="evenodd" sketch:type="MSPage">
        <g id="icon-linepath-straight-22px" sketch:type="MSArtboardGroup" fill="#3D4752">
            <path d="M17,2 C15.3,2 14,3.3 14,5 C14,5.5 14.1,5.9 14.3,6.3 L6.3,14.3 C5.9,14.1 5.5,14 5,14 C3.3,14 2,15.3 2,17 C2,18.7 3.3,20 5,20 C6.7,20 8,18.7 8,17 C8,16.5 7.9,16.1 7.7,15.7 L15.7,7.7 C16.1,7.9 16.5,8 17,8 C18.7,8 20,6.7 20,5 C20,3.3 18.7,2 17,2 L17,2 Z" id="Shape" sketch:type="MSShapeGroup"></path>
        </g>
    </g>
</svg>
